X: 3139
T: Beautiful Gortree
R: reel
M: 4/4
K: Emajor
ec|:BE (3EEE E2GB|cBGB g2bg|fegf ecBe|fgfe cBGF|
E3F GFEG|(3BBB GB g2bg|f3e gfec|1 BGFG E2ec:|2 BGFG Eefe||
|:fgfe bege|ef (3gfe ceBe|fgfe bege|BccB Bcef-|
fgfe bege|ef (3gfe ceBe|fgfe ceec|1 BGFG Eefe:|2 BGFG E2ec||

